svg/factory_worker_outline.svg

<?xml version="1.0" encoding="UTF-8" standalone="no"?>
<!-- Created with Inkscape (http://www.inkscape.org/) -->
<svg id="svg8" xmlns:rdf="http://www.w3.org/1999/02/22-rdf-syntax-ns#" xmlns="http://www.w3.org/2000/svg" xmlns:osb="http://www.openswatchbook.org/uri/2009/osb" height="48" width="48" version="1.1" xmlns:cc="http://creativecommons.org/ns#" viewBox="0 0 12.7 12.7" xmlns:dc="http://purl.org/dc/elements/1.1/">
 <title id="title4753">UIO-icon</title>
 <metadata id="metadata5">
  <rdf:RDF>
   <cc:Work rdf:about="">
    <dc:format>image/svg+xml</dc:format>
    <dc:type rdf:resource="http://purl.org/dc/dcmitype/StillImage"/>
    <dc:title>UIO-icon</dc:title>
    <dc:creator>
     <cc:Agent>
      <dc:title>Joaquín Urbano</dc:title>
     </cc:Agent>
    </dc:creator>
    <dc:rights>
     <cc:Agent>
      <dc:title>GPL</dc:title>
     </cc:Agent>
    </dc:rights>
   </cc:Work>
  </rdf:RDF>
 </metadata>
 <g id="layer1" transform="translate(0,-284.3)" fill="#333">
  <path id="path1933" d="m23.5 4.9727c-2.6956 0-2.7562 0.071705-2.2305 2.6016 0.36088 1.737 0.36504 2.0102 0.029297 2.2871-0.579 0.4766-0.861 0.0841-1.299-1.7989-0.214-0.9226-0.426-1.7037-0.469-1.7402-0.205-0.1691-2.338 1.352-2.992 2.1347-0.8581 1.027-1.5762 2.6499-1.5762 3.5547 0 0.46638-0.12297 0.63281-0.4668 0.63281-0.96254 0-1.4706 1.0878-0.77539 1.6602 0.28514 0.34842 1.35 0.60364 2.8164 0.7832v4.787c0 2.0844 0.5155 4.1544 1.9922 5.084 2.09 1.3157 3.1271 2.1809 4.9668 2.2383 1.2599 0.00378 2.871-1.135 4.6094-2.2227 1.5631-0.97807 2.3613-3.0259 2.3613-5.0996-0.011169-1.627-0.030429-3.2539-0.046875-4.8809 1.3829-0.1767 2.4362-0.4063 2.8613-0.68945 0.69516-0.57238 0.1891-1.6602-0.77344-1.6602-0.34383 0-0.46875-0.16653-0.46875-0.63281 0-1.6841-1.6149-4.0564-3.4805-5.1133l-1.135-0.6441-0.135 0.584c-0.075 0.3216-0.267 1.1348-0.426 1.8066-0.315 1.3335-0.63 1.6515-1.181 1.1973-0.305-0.2513-0.297-0.5878 0.052-2.2676 0.526-2.53 0.464-2.6015-2.232-2.6015zm-1.2516 0.52801c0.38934-0.014249 0.63264-0.041657 1.109-0.014342 0.72904 0.0055559 1.5288-0.07541 2.084 0.14258 0.092167 0.43689-0.096536 1.093-0.17188 1.6602l-0.30273 1.6426c-0.001213 0.54477-0.033803 1.1022 0.53125 1.4043 0.63815 0.40954 1.1742 0.28361 1.5625-0.59766 0.28554-0.90272 0.56687-1.8052 0.68945-2.6875 0.61406 0.2993 1.386 0.82856 2.0176 1.4688 0.54972 0.68986 0.91164 0.80921 1.4355 2.1328 0.24859 0.55881 0.33484 1.0778 0.33398 1.5742-0.024026 0.2942 0.12039 0.52498 0.32422 0.73633 0.18635 0.19848 0.51208 0.19039 0.81836 0.20898 0.10429 0.012221 0.46375 0.059333 0.4043 0.62305-0.023851 0.13723-0.40765 0.24153-0.65039 0.30664-2.1707 0.51909-4.6981 0.66865-6.7051 0.72461l-2.6914 0.058594c-1.898 0.04074-3.7757 0.001519-5.6113-0.20703-0.39746-0.003631-0.7731-0.072565-1.1504-0.13672l-1.798-0.387c-0.19135-0.093608-0.41234-0.075003-0.54688-0.37695-0.03747-0.27867-0.035176-0.54307 0.54102-0.61719 0.28232 0.006841 0.55867-0.061647 0.82031-0.40625 0.17213-0.31344 0.20358-0.58067 0.18945-0.83203 0.14213-0.58027 0.26955-1.1809 0.51172-1.6211 0.32486-0.79027 0.75484-1.3706 1.2461-1.8281 0.66106-0.51853 1.3434-1.1444 1.9668-1.4746l0.58398 2.2969c0.42478 0.99858 0.52595 0.91729 0.71875 1.1426 0.50871 0.33289 0.89674 0.007416 1.2832-0.33203 0.12344-0.23942 0.29249-0.3102 0.23828-1.2207l-0.446-2.4119c-0.038-0.2207-0.075-0.3304-0.113-0.6622-0.041-0.2623 0.432-0.277 0.777-0.3098zm7.658 9.5543c0.016163 1.5108 0.031837 3.0036 0.041016 4.5156 0 1.8753-0.63337 4.0318-2.0469 4.916-1.572 0.98366-3.2259 2.1971-4.3652 2.1934-1.6637-0.047622-2.9459-1.0229-4.8359-2.2129-1.335-0.841-1.665-2.988-1.66-4.873l0.011719-4.4414c3.5917 0.36911 9.2033 0.30966 12.855-0.097656zm-9.4141 0.88477c-0.43898 0.00011339-0.79482 0.35601-0.79492 0.79492 0.00009828 0.43895 0.35596 0.79481 0.79492 0.79492 0.43898-0.00011339 0.79482-0.35604 0.79492-0.79492-0.00009828-0.43899-0.35596-0.79481-0.79492-0.79492zm5.9688 0c-0.43898 0.00011339-0.79483 0.35601-0.79492 0.79492 0.0000945 0.43895 0.35592 0.79481 0.79492 0.79492 0.43898-0.00011339 0.79482-0.35604 0.79492-0.79492-0.00009828-0.43899-0.35596-0.79481-0.79492-0.79492zm-3.035 3.669c-0.37814 0.00378-0.67004 0.070579-0.66602 0.14844 0.001999 0.080882 0.32239 0.14686 0.7168 0.14648 0.39441 0.00003779 0.71477-0.065602 0.7168-0.14648 0.003201-0.082016-0.31865-0.14844-0.7168-0.14844-0.017008-0.00011339-0.034-0.00011339-0.050781 0zm2.9551 2.2617c-0.00007561 0.00041575-0.011341 0.001424-0.011719 0.001953 0.00011717 0.00037795 0.011719-0.00041575 0.011719 0zm-0.011719 0.001953c-0.015874-0.053669-1.2268 0.071172-2.7285 0.2832-0.064441 0.007559-0.12896 0.019785-0.19336 0.027344-1.4369 0.2075-2.5416 0.40995-2.5215 0.46094 0.026079 0.052158 1.2485-0.077409 2.7422-0.28906 1.4821-0.21014 2.6733-0.42369 2.7012-0.48242zm3.9434 5.5605c-1.5652 1.4702-4.7177 2.8115-6.8027 2.8438-2.5629-0.002872-5.0208-1.0188-6.8379-2.8262l-0.10938 0.029297c-0.87529 0.31559-1.7272 0.6743-2.582 1.0449v5.849h18.737v-5.982c-0.795-0.341-1.588-0.669-2.405-0.959zm0.10742 0.58594s0.90056 0.35421 1.4629 0.58203c0.24854 0.10069 0.31641 0.12891 0.31641 0.12891l0.001953 5.1309h-17.714l-0.009-4.987c-0.00012447-0.06226 1.7656-0.72656 1.7656-0.72656 0.29924-0.1146 0.28207-0.12207 0.29688-0.10938 0.65299 0.55982 3.3133 2.9164 7.0469 2.7539 2.9093-0.12663 4.8252-1.3 6.834-2.7734zm4.9492 1.5234v12.023h5.918v-6.6621c0-1.1525 0.00016284-3.2682-2.5449-4.0195-1.2109-0.42077-2.3081-0.88043-3.373-1.3418zm-24.04 0.131c-0.97219 0.4165-1.9726 0.83023-3.0684 1.2109-2.5451 0.74956-2.5449 2.867-2.5449 4.0195v6.6621h5.6133v-7.191zm24.551 0.65039 2.6328 1.0254c1.2836 0.41857 2.3331 1.0986 2.2559 3.043l0.003906 6.6602h-4.8906zm-25.065 0.127-0.002 6.729v3.873h-4.5854l0.0078-6.631v-0.32031c0.19978-1.0654 0.34344-2.1469 2.2051-2.7461z" transform="matrix(.26458 0 0 .26458 0 284.3)"/>
 </g>
</svg>

<svg width="48" height="48" viewBox="0 0 48 48" fill="none" xmlns="http://www.w3.org/2000/svg">
<path d="M23.4996 4.97266C20.8041 4.97266 20.7435 5.04436 21.2692 7.57422C21.63 9.3112 21.6342 9.5844 21.2985 9.86129C20.7195 10.3379 20.4375 9.94539 19.9995 8.06242C19.7855 7.13983 19.5735 6.35874 19.5305 6.32224C19.3255 6.15314 17.1925 7.67422 16.5385 8.45691C15.6804 9.4839 14.9623 11.1068 14.9623 12.0116C14.9623 12.4779 14.8394 12.6444 14.4956 12.6444C13.533 12.6444 13.025 13.7322 13.7202 14.3045C14.0053 14.653 15.0702 14.9082 16.5365 15.0877V19.8747C16.5365 21.9591 17.052 24.029 18.5287 24.9586C20.6187 26.2743 21.6558 27.1395 23.4954 27.1969C24.7553 27.2007 26.3664 26.0619 28.1048 24.9742C29.6679 23.9962 30.4661 21.9484 30.4661 19.8747C30.4549 18.2477 30.4356 16.6208 30.4192 14.9938C31.8021 14.8171 32.8554 14.5875 33.2805 14.3044C33.9756 13.732 33.4695 12.6442 32.507 12.6442C32.1632 12.6442 32.0383 12.4777 32.0383 12.0114C32.0383 10.3273 30.4234 7.95507 28.5578 6.89818L27.4228 6.25409L27.2878 6.83808C27.2128 7.15968 27.0208 7.97287 26.8618 8.64466C26.5468 9.97814 26.2318 10.2961 25.6809 9.84194C25.3759 9.59065 25.3839 9.25415 25.7329 7.57437C26.2588 5.04441 26.1968 4.97291 23.5009 4.97291L23.4996 4.97266ZM22.2481 5.50066C22.6374 5.48641 22.8807 5.459 23.357 5.48632C24.0861 5.49187 24.8858 5.41091 25.441 5.6289C25.5332 6.06578 25.3445 6.72188 25.2691 7.28907L24.9664 8.93165C24.9652 9.47642 24.9326 10.0338 25.4977 10.3359C26.1358 10.7455 26.6718 10.6195 27.0601 9.73828C27.3457 8.83558 27.627 7.93311 27.7496 7.05082C28.3636 7.35011 29.1356 7.87937 29.7672 8.5196C30.3169 9.20945 30.6788 9.3288 31.2026 10.6524C31.4512 11.2112 31.5375 11.7302 31.5366 12.2266C31.5126 12.5207 31.657 12.7515 31.8608 12.9629C32.0472 13.1614 32.3729 13.1533 32.6792 13.1719C32.7835 13.1841 33.1429 13.2312 33.0835 13.7949C33.0596 13.9321 32.6758 14.0364 32.4331 14.1015C30.2624 14.6206 27.735 14.7702 25.7281 14.8261L23.0367 14.8847C21.1387 14.9255 19.2611 14.8862 17.4255 14.6777C17.028 14.6741 16.6524 14.6051 16.2751 14.541L14.4771 14.154C14.2858 14.0604 14.0648 14.079 13.9302 13.777C13.8928 13.4984 13.8951 13.234 14.4713 13.1599C14.7536 13.1667 15.0299 13.0982 15.2916 12.7536C15.4637 12.4402 15.4951 12.1729 15.481 11.9216C15.6231 11.3413 15.7505 10.7407 15.9927 10.3005C16.3176 9.51025 16.7475 8.92993 17.2388 8.47243C17.8999 7.95391 18.5822 7.32805 19.2056 6.99785L19.7895 9.29472C20.2143 10.2933 20.3155 10.212 20.5083 10.4373C21.017 10.7702 21.405 10.4447 21.7915 10.1053C21.9149 9.86587 22.084 9.79509 22.0298 8.8846L21.5838 6.47273C21.5458 6.25203 21.5088 6.14233 21.4708 5.81054C21.4298 5.54824 21.9028 5.53354 22.2477 5.50074L22.2481 5.50066ZM29.906 15.0548C29.9221 16.5656 29.9378 18.0584 29.947 19.5704C29.947 21.4457 29.3136 23.6021 27.9001 24.4863C26.3281 25.47 24.6742 26.6834 23.535 26.6797C21.8713 26.6321 20.5891 25.6568 18.6991 24.4668C17.3641 23.6258 17.0341 21.4789 17.0391 19.5939L17.0509 15.1525C20.6425 15.5216 26.254 15.4622 29.9057 15.0549L29.906 15.0548ZM20.492 15.9396C20.053 15.9397 19.6972 16.2956 19.6971 16.7345C19.6972 17.1735 20.053 17.5293 20.492 17.5294C20.931 17.5293 21.2868 17.1734 21.2869 16.7345C21.2868 16.2955 20.9309 15.9397 20.492 15.9396ZM26.4607 15.9396C26.0217 15.9397 25.6659 16.2956 25.6658 16.7345C25.6659 17.1735 26.0217 17.5293 26.4607 17.5294C26.8997 17.5293 27.2555 17.1734 27.2556 16.7345C27.2555 16.2955 26.8997 15.9397 26.4607 15.9396ZM23.4257 19.6086C23.0476 19.6123 22.7557 19.6791 22.7597 19.757C22.7617 19.8379 23.0821 19.9038 23.4765 19.9035C23.8709 19.9035 24.1913 19.8379 24.1933 19.757C24.1965 19.675 23.8747 19.6086 23.4765 19.6086C23.4595 19.6084 23.4425 19.6084 23.4257 19.6086ZM26.3808 21.8702C26.3807 21.8706 26.3695 21.8716 26.3691 21.8722C26.3692 21.8726 26.3808 21.8718 26.3808 21.8722V21.8702ZM26.3691 21.8722C26.3532 21.8185 25.1423 21.9433 23.6406 22.1554C23.5762 22.1629 23.5117 22.1752 23.4473 22.1827C22.0104 22.3902 20.9057 22.5927 20.9258 22.6437C20.9519 22.6958 22.1743 22.5662 23.668 22.3546C25.15 22.1445 26.3412 21.9309 26.3691 21.8722ZM30.3124 27.4326C28.7473 28.9028 25.5948 30.2441 23.5098 30.2764C20.947 30.2735 18.4891 29.2576 16.672 27.4502L16.5626 27.4795C15.6873 27.7951 14.8355 28.1538 13.9807 28.5244V34.3733H32.7174V28.3914C31.9224 28.0504 31.1294 27.7224 30.3125 27.4324L30.3124 27.4326ZM30.4199 28.0185C30.4199 28.0185 31.3204 28.3727 31.8827 28.6006C32.1313 28.7012 32.1991 28.7295 32.1991 28.7295L32.2011 33.8603H14.4873L14.4783 28.8734C14.4782 28.8111 16.2439 28.1468 16.2439 28.1468C16.5431 28.0322 16.526 28.0247 16.5408 28.0374C17.1938 28.5973 19.854 30.9538 23.5876 30.7913C26.4968 30.6647 28.4127 29.4913 30.4215 28.0179L30.4199 28.0185ZM35.369 29.5419V41.5648H41.2869V34.9028C41.2869 33.7503 41.2871 31.6346 38.742 30.8833C37.5312 30.4625 36.434 30.0029 35.3691 29.5415L35.369 29.5419ZM11.3293 29.6729C10.3571 30.0894 9.35672 30.5031 8.26093 30.8838C5.71586 31.6334 5.71606 33.7508 5.71606 34.9032V41.5653H11.3293V34.3744V29.6729ZM35.88 30.3233L38.5128 31.3487C39.7963 31.7673 40.8458 32.4473 40.7686 34.3916L40.7725 41.0518H35.882L35.88 30.3233ZM10.8153 30.4503L10.8133 37.1792V41.0522H6.22796L6.23576 34.4212V34.1009C6.43554 33.0356 6.57919 31.9541 8.44083 31.3549L10.8153 30.4503Z" fill="#333333"/>
</svg>
